icon/pk/parachute.svg

<svg viewBox="0 0 48 48" fill="none" xmlns="http://www.w3.org/2000/svg" height="1em" width="1em">
  <path d="M16.7273 24C19.1515 21.5758 21.5758 20.3636 24 20.3636C26.4242 20.3636 28.8485 21.5758 31.2727 24C34.101 21.5758 36.2222 20.3636 37.6364 20.3636C39.0505 20.3636 41.1717 21.5758 44 24C44 12.9543 35.0457 4 24 4C12.9543 4 4 12.9543 4 24C6.82828 21.5758 8.9495 20.3636 10.3636 20.3636C11.7778 20.3636 13.899 21.5758 16.7273 24Z" fill="#2F88FF" stroke="black" stroke-width="4" stroke-linejoin="round"/>
  <path d="M4 24L24 44L16.7273 24" stroke="black" stroke-width="4" stroke-linecap="round" stroke-linejoin="round"/>
  <path d="M31.2727 24L24 44L44 24" stroke="black" stroke-width="4" stroke-linecap="round" stroke-linejoin="round"/>
</svg>

<svg width="48" height="48" fill="none" xmlns="http://www.w3.org/2000/svg"><path d="M16.727 24c2.424-2.424 4.849-3.636 7.273-3.636 2.424 0 4.849 1.212 7.273 3.636 2.828-2.424 4.95-3.636 6.363-3.636 1.414 0 3.536 1.212 6.364 3.636 0-11.046-8.954-20-20-20S4 12.954 4 24c2.828-2.424 4.95-3.636 6.364-3.636 1.414 0 3.535 1.212 6.363 3.636Z" fill="#2F88FF" stroke="#000" stroke-width="4" stroke-linejoin="round"/><path d="m4 24 20 20-7.273-20M31.273 24 24 44l20-20" stroke="#000" stroke-width="4" stroke-linecap="round" stroke-linejoin="round"/></svg>
